X: 42248
T: We'll All Lie Together
R: slip jig
M: 9/8
K: Gmixolydian
|:G2 B d2 B c2 F|G2 B d2 B cBA|G2 B d2 B c3|AcA F2 A c2 A:|
|:G2 D D2 E F2 D|G2 D D2 B cBA|G2 D D2 E F3|AcA F2 A cBA:|

